X:1
T:Keyboard Sonata in G major
T:Keyboard Sonata in G major
T:K.391; L.79
T:Domenico Scarlatti
T:Public Domain (PianoXML typeset)
T:Public Domain (PianoXML typeset)
C:Domenico Scarlatti
Z:Public Domain (PianoXML typeset)
%%score { ( 1 3 ) | 2 }
L:1/8
Q:1/4=120
M:3/4
K:G
V:1 treble nm="Piano" snm="Pno."
V:3 treble 
V:2 bass 
V:1
 (3gdb (a2 g2) | (3bdd' (c'2 b2) | (3aca (3gBg (3fAf | (3gdB (3GBd G2 | (3gdb (a2 g2) | %5
 (3bdd' (c'2 b2) | (3aca (3gBg (3fAf | (3gdB (3GBd G2 | (3BG^c (3dGe (3fGg | (3aAB (3^cAd (3eAf | %10
{a} (3gfe d2 P^c2 |{^c} d6 | (3BG^c (3dGe (3fGg | (3aAB (3^cAd (3eAf |{a} (3gfe d2 P^c2 |{^c} d6 | %16
 (3dAf d2 z2 | (3afd' a2 z2 | (3AFd A2 z2 | T^c'4 d'2 | (3efg f2 e2 | d6 | (3dAf d2 z2 | %23
 (3afd' a2 z2 | (3AFd A2 z2 | T^c'4 d'2 | (3efg f2 e2 | (3dag (3fed (3^cBA | (3GFE D2 P^C2 | %29
 (3Dag (3fed (3^cBA | (3GFE D2 P^C2 | D6 :: (3FDG (3ADB (3cDd | (3ecf (3gca (3bcc' | d'2 c'bag | %35
 Pf3 e d2 | (3FDG (3ADB (3cDd | (3ecf (3gca (3bcc' | d'2 c'bag | Pf3 e d2 | (3ADc (B2 A2) | %41
 (3cAa (g2 f2) | (3adc' (b2 a2) | Pf3 e d2 | (3dBg d2 z2 | (3bgd' b2 z2 | (3BGd B2 z2 | Tf4 g2 | %48
 (3ABc B2 A2 | Pf3 e d2 | (3dBg d2 z2 | (3bgd' b2 z2 | (3BGd B2 z2 | Tf4 g2 | (3ABc B2 A2 | %55
 (3Gd'c' (3bag (3fed | (3cBA G2 PF2 | (3Gd'c' (3bag (3fed | (3cBA G2 PF2 | G6 :| %60
V:2
 G,6 | G,,6 | C2 D2 D,2 | G,,6 | G,6 | G,,6 | C2 D2 D,2 | G,,6 | G,6 | F,6 | G,2 A,2 A,,2 | D,,6 | %12
 G,6 | F,6 | G,2 A,2 A,,2 | D,,6 | z6 | z6 | z6 | z2 [E,,E,]2 [F,,F,]2 | [G,,G,]2 A,2 A,,2 | D,,6 | %22
 z6 | z6 | z6 | z2 [E,,E,]2 [F,,F,]2 | [G,,G,]2 A,2 A,,2 | D,2 E,2 F,2 | G,2 A,2 A,,2 | %29
 [D,,D,]2 [E,,E,]2 [F,,F,]2 | [G,,G,]2 A,,2 A,,,2 | D,,6 :: D,6 | C,6 | B,,4 C,2 | D,,6 | D,6 | %37
 C,6 | B,,4 C,2 | D,,6 | D,,6 | D,,6 | D,,6 | G,,6 | z6 | z6 | z6 | z2 [A,,A,]2 [B,,B,]2 | %48
 [C,C]2 D,2 D,,2 | G,,6 | z6 | z6 | z6 | z2 [A,,A,]2 [B,,B,]2 | [C,C]2 D,2 D,,2 | %55
 [G,,G,]2 [A,,A,]2 [B,,B,]2 | [C,C]2 D,2 D,,2 | [G,,G,]2 [A,,A,]2 [B,,B,]2 | [C,C]2 D,2 D,,2 | %59
 G,,,6 :| %60
V:3
 x6 | x6 | x6 | x6 | x6 | x6 | x6 | x6 | x6 | x6 | x6 | x6 | x6 | x6 | x6 | x6 | x2 F2 x2 | %17
 x2 f2 x2 | x2 F2 x2 | x6 | x2 d2 ^c2 | x6 | x2 F2 x2 | x2 f2 x2 | x2 F2 x2 | x6 | x2 d2 ^c2 | x6 | %28
 x6 | x6 | x6 | x6 :: x6 | x6 | x6 | x6 | x6 | x6 | x6 | x6 | x6 | x6 | x6 | x6 | x2 B2 x2 | %45
 x2 g2 x2 | x2 G2 x2 | x6 | x2 G2 F2 | x6 | x2 B2 x2 | x2 g2 x2 | x2 G2 x2 | x6 | x2 G2 F2 | x6 | %56
 x6 | x6 | x6 | x6 :| %60

